X:103
T:Gerry Cronins
R:Reel
D:Sean Smyth: The Blue Fiddle
Z:Transcription, Arr., chords:Mike Long
M:C|
L:1/8
K:C
"C"c2Bc "G"AGED|"F"CA,~A,2 G,A,CD|"C"EGcd ecdc|"F"Ad~d2 "G"dfed|\
"C"c2cB "G"AGED|"F"CA,~A,2 G,A,CD|
"C"EGce "F"dBcA|"G"GEFD "C"ECEG:|\
|:"C"c2gc acgc|"F"fdec dcAc|"C"Gc~c2 Gcea|
"C"gece "G"d2eg|\
"Am"agea "G"gede|"F"c2~c2 dcAc|\
"C"EGce "F"dBcA|"G"GEFD "C"ECEG:|\
